X:1
T:Title
%%score { ( 1 3 ) | 2 }
L:1/8
M:4/4
K:Bb
V:1 treble nm="Grand Piano"
V:3 treble 
V:2 bass 
V:1
 z4 z2[Q:1/4=100] [DF]2 | [DF]2 [Fd]2 [Fd]2 [DB]2 | [Ec]2 [DB]4 [FA]2 | [EG]3 [EA] [FB]2 [Ec]2 | %4
 [DF]6 [DFB]2 | A3 B c2 F2 | [DB]2 [Fd]4 [DFB]2 | [=EB]3 [EG] [EA]2 B2 | c6 F2 | %9
 [DF]2 [Fd]2 [Fd]2 [DB]2 | [Ec]2 [DB]4 [FB]2 | [Ge] [Ge]3 [GB]2 [Ge]2 | [Fd]6 [Fd]2 | %13
 [Fd]2 [FB]2 c2 d2 | [Gf]2 [Ge]4 G2 | F d3 d3 c |[M:3/4] [DB]6 |[M:1/4] F2 |[M:4/4] c3 e d2 c2 | %19
 [DB]2 [DF]4 [DB]2 | [=EG]2 [Ec]2 [Ec]2 [Ed]2 | c6 z2 | [DF]2 [DB]2 d2 [_Af]2 | [Gf]2 [Ge]4 G2 | %24
 F d3 d3 c |[M:3/4] [DB]6 |] %26
V:2
 z4 z2 [B,,B,]2 | [B,,B,]2 [B,,B,]2 [B,,B,]2 [B,,F,]2 | [B,,G,]2 [B,,F,]4 [D,B,]2 | %3
 [E,B,]3 [C,C] [D,B,]2 [F,A,]2 | B,6 B,,2 | [F,CE]3 [F,CE] [F,A,E]2 [F,A,E]2 | %6
 [B,,B,]2 [B,,B,]4 B,,2 | [C,C]3 [C,C] [C,C]2 [G,B,=E]2 | [F,A,E]6 [F,A,E]2 | %9
 [B,,B,]2 [B,,B,]2 [B,,B,]2 [B,,F,]2 | [B,,G,]2 [B,,F,]4 [D,B,]2 | [E,B,] [E,B,]3 [E,B,]2 [E,B,]2 | %12
 [B,,B,]6 [B,,B,]2 | [B,,B,]2 [D,B,]2[K:treble] [F,A,F]2 [B,F]2 | [E,B,]2 [E,B,]4 [=E,B,_D]2 | %15
 [F,B,D] [F,B,F]3 [F,A,F]3 [F,A,E] |[M:3/4] [B,,B,]6 |[M:1/4] [B,D]2 | %18
[M:4/4] [F,A,E]3 [F,CG] [F,B,F]2 [F,A,E]2 | [B,,B,]2 [B,,B,]4 [B,,B,]2 | %20
 [C,B,]2 [C,G,]2 [C,G,]2 [C,B,]2 | [F,A,F]2 [G,B,]2 [F,A,]2 [F,A,E]2 | %22
 [B,,B,]2 [B,,B,]2 [B,F]2 [D,B,]2 | [E,B,]2 [E,B,]4 [=E,B,_D]2 | %24
 [F,B,D] [F,B,F]3 [F,A,F]3 [F,A,E] |[M:3/4] [B,,B,]6 |] %26
V:3
 x8 | x8 | x8 | x8 | x8 | x8 | x8 | x8 | x8 | x8 | x8 | x8 | x8 | x8 | x8 | x8 |[M:3/4] x6 | %17
[M:1/4] x2 |[M:4/4] x8 | x8 | x8 | z2 =E2 _E2 F2 | x8 | x8 | x8 |[M:3/4] x6 |] %26

